X:1
T:Gauntlett, 76.76 D
T:Henry John Gauntlett (1805-1876)
T:Gauntlett, 76.76 D
T:Public Domain
C:Henry John Gauntlett (1805-1876)
Z:Public Domain
%%score ( 1 2 ) ( 3 4 )
L:1/8
M:4/4
K:D
V:1 treble 
V:2 treble 
V:3 bass 
V:4 bass 
V:1
 F4 | (FE) [FB]2 (FE) [Fc]2 | (FE) [DF]4 [B,B]2 | [GB]3 [FA] [EG]2 [GB]2 [DF]6 [Fd]2 | %4
 [Ge]3 [Fd] [Gc]2 [CB]2 | [DA]2 [Fd]4 [DF]2 | [DE]2 [DG]2 [DF]2 [CE]2 | [DF]6 F2 | %8
 F2 [FB]2 [F^G]2 [^Ec]2 | [Fc]2 [FA]4 [^E^G]2 | [FA]2 [Cc]2 [DB]2 (CB,) | [Ce]4 [Ec]4 | %12
 [Fd]2 (ED) [FB]2 (ED) | B,2 z2 G2 [GB]2 | [FB]2 (ED) [Ec]2 [F^A]2 | [DB]4 |] %16
V:2
 F4 | d2 x ^A2 x3 | B2 x6 | x16 | x8 | x8 | x8 | x6 F2 | F2 x6 | x8 | x6 e2 | x8 | x2 A2 x F2 x | %13
 G4 E4 | x2 d2 x4 | x4 |] %16
V:3
 F,4 | [B,,D]2 [D,D]2 [F,C]2 [F,^A,]2 | (DC) B,4 B,2 | [E,G,]3 [F,A,] [G,B,]2 [G,B,]2 B,6 [B,D]2 | %4
 [A,C]3 [A,D] [A,E]2 [G,E]2 | [F,A,]2 [D,A,]4 [B,D]2 | [G,B,]2 [E,B,]2 A,2 [A,,A,]2 | [D,A,]6 F,2 | %8
 [D,B,]2 [D,B,]2 [C,B,]2 (A,G,) | [F,A,]2 [F,C]4 C2 | [A,C]2 ([^G,B,][F,A,]) [E,A,]2 [E,G,]2 | %11
 A,4 [A,,A,]4 | [D,A,]2 (G,F,) [D,F,]2 (C,B,,) | (G,F,G,A,) (B,C)(DC) | %14
 [F,D]2 (CB,) [F,^A,]2 [F,C]2 | [B,,B,]4 |] %16
V:4
 F,4 | x8 | B,2 B,4 B,2 | x8 B,6 x2 | x8 | x8 | x4 A,2 x2 | x6 F,2 | x6 C,2 | x6 C2 | x8 | A,4 x4 | %12
 x2 D,2 x B,2 x | E,4 E,2 E,2 | x2 F,2 x4 | x4 |] %16

